app/dist/common/images/amalgamated-financial.svg

<svg height="18" viewBox="0 0 18 18" width="18" xmlns="http://www.w3.org/2000/svg"><path d="m0 0h18v18h-18z" fill="#00305e"/><path d="m14 11c0 1.58-1.4 3-3 3v1a3.8 3.8 0 0 0 4-4 4.08 4.08 0 0 0 -4-4v1c1.6.01 3 1.42 3 3zm-10-4h1v1h-1zm2 2h2v1h-2zm3 3h1v1h-1zm-3-5h4v1h-4z" fill="#faffff"/><path d="m11 9h-2v1h2c.5 0 1 .25 1 1s-.5 1-1 1v1c1 0 2-.5 2-2.05 0-1.32-1-1.95-2-1.95z" fill="#faffff"/><g fill="#e68a2a"><path d="m7 5c-1.5 0-2 1-2 2v1.86l1 1.14v-3c0-.5.33-1 1-1s1 .5 1 1h1c0-1-.5-2-2-2zm4 10-1-1.24v-3.76h1z"/><path d="m11 6.96c-.03-2.22-1.5-3.96-4-3.96s-3.97 1.78-4 3.96l1 1.04v-1.04a3.05 3.05 0 0 1 3-2.96 3.16 3.16 0 0 1 3 2.96v2.04h1z"/><path d="m9 13-1-1.24v-3.76h1z"/></g></svg>

<!-- by TradingView --><svg width="18" height="18" viewBox="0 0 18 18" xmlns="http://www.w3.org/2000/svg"><path fill="#00305E" d="M0 0h18v18H0z"/><path d="M14 11c0 1.58-1.4 3-3 3v1a3.8 3.8 0 0 0 4-4 4.08 4.08 0 0 0-4-4v1c1.6.01 3 1.42 3 3ZM4 7h1v1H4V7ZM6 9h2v1H6V9ZM9 12h1v1H9v-1ZM6 7h4v1H6V7Z" fill="#FAFFFF"/><path d="M11 9H9v1h2c.5 0 1 .25 1 1s-.5 1-1 1v1c1 0 2-.5 2-2.05C13 9.63 12 9 11 9Z" fill="#FAFFFF"/><path d="M7 5C5.5 5 5 6 5 7v1.86L6 10V7c0-.5.33-1 1-1 .67 0 1 .5 1 1h1c0-1-.5-2-2-2ZM11 15l-1-1.24V10h1v5Z" fill="#E68A2A"/><path d="M11 6.96C10.97 4.74 9.5 3 7 3S3.03 4.78 3 6.96L4 8V6.96A3.05 3.05 0 0 1 7 4a3.16 3.16 0 0 1 3 2.96V9h1V6.96Z" fill="#E68A2A"/><path d="m9 13-1-1.24V8h1v5Z" fill="#E68A2A"/></svg>
